X: 2
T: The Pigtown Fling
R: reel
M: 4/4
L: 1/8
K: Gmaj
G2ge d2ed|Bdge dBAB|1 G2ge d2ed|B2Ac BGEF:|2 g2ge d2ed|B2Ac BGG2||Beed e2fe|dfaf gfed|Beed e2fe|1 dfaf g4:|2 dgfa gedB||


Tune 80	Setting 12579

